X:1
T:Title
%%score { ( 1 4 ) | ( 2 3 ) }
L:1/8
Q:1/4=100
M:4/4
K:D
V:1 treble nm="Grand Piano"
V:4 treble 
V:2 bass 
V:3 bass 
V:1
 [DF]2 [FA]2 [Fd]2 [DF]A | [A,EG]3 [A,DF][K:bass] [G,CE]2 [F,D]2 | %2
w: B.~M.~McDowell * * * *||
 [CE]3 [=C^D] [^CE][K:treble][DF][EG][FA] | [Ac]3 [GB] [FA]2 G2 | [A,DF]3 [A,FA] [A,D]2 [A,DF]2 | %5
w: |||
[M:9/8] [Fd]2 [DF] G [DFA]2 [DGB]3 |[M:4/4] [DFA]2 [CGB]2 [DFA]3 [CGB] | [DFA]2 [Gc]2 [Fd]4 | %8
w: |||
 B2 B2 Bc d2 | [Fd]2 [FA]2 [FA][EG] [DF]2 | [EG]2 F2 E2 A2 | c3 B A2 z2 | %12
w: ||||
 [A,DF]3 [A,FA][K:bass] D-[DE][K:treble] [A,DF]2 |[M:9/8] [DFA]2 [CEA]- [CEA] [=CDA]2 [B,DG]3 | %14
w: ||
[M:4/4] [DF]A[EG]F .[A,CE]2 [A,CG]2 | [A,DF]3[K:bass] [G,CE] [F,D]4 |] %16
w: ||
V:2
 [D,A,]2 [D,D]2 [D,A,]2 z F | A,,3 A,, A,,2 D,2 | [A,,A,]3 [A,,A,] [A,,A,]2 [A,,A,]2 | %3
 [A,,A,]3 [A,,A,] z2 E2 | D,3 D, F,2 D,2 |[M:9/8] .[D,A,]3 E D,2 G,3 |[M:4/4] A,2 A,2 A,3 A,, | %7
 A,,2 [A,,A,]2 [D,A,]4 | [G,D]2 [G,D]2 z A, [G,B,G]2 | [D,A,]2 [D,A,]2 [D,A,]2 [D,A,]2 | %10
 [C,A,]2 [D,A,D]2 [E,A,C]2 [E,A,C]2 | [E,A,E]3 [E,^G,D] z2 G2 | D,3 D, z G, D,2 | %13
[M:9/8] D,2 E,- E, F,2 G,3 |[M:4/4] z[K:treble] F z D[K:bass] z A A,,2 | A,,3 A,, D,4 |] %16
V:3
 z4 z2 [D,A,]2 | x8 | x8 | z4 [A,,A,]4 | x8 |[M:9/8] z2 [D,A,]- [D,A,] z z z3 |[M:4/4] x8 | x8 | %8
 z4 [G,D]2 z2 | x8 | x8 | z4 A,,4 | z4 D,2 z2 |[M:9/8] x9 | %14
[M:4/4] A,2[K:treble] A,2[K:bass] A,,2 z2 | x8 |] %16
V:4
 x8 | x4[K:bass] x4 | x5[K:treble] x3 | x8 | x8 |[M:9/8] x9 |[M:4/4] x8 | x8 | x8 | x8 | x8 | %11
 z4 [A,C]4 | z4[K:bass] .F,2[K:treble] z2 |[M:9/8] x9 |[M:4/4] x8 | x3[K:bass] x5 |] %16

